lib/brands/icons/healthgrades.svg

<svg xmlns="http://www.w3.org/2000/svg" fill="none" aria-hidden="true" viewBox="0 0 48 48"><g id="healthgrades-Icon"><path id="Vector" fill="#1B41E9" d="M23.4086 38.1104L8.74468 23.4465C0.561947 15.2638 12.545 4.18429 20.2922 11.9266L23.1338 14.8414C23.3213 15.1137 23.5722 15.3363 23.8648 15.49C24.1575 15.6438 24.4831 15.7242 24.8137 15.7242C25.1443 15.7242 25.47 15.6438 25.7626 15.49C26.0553 15.3363 26.3062 15.1137 26.4937 14.8414L29.8261 11.5534C29.9746 11.3543 30.1625 11.1879 30.3781 11.0646C30.5936 10.9412 30.8323 10.8636 31.0792 10.8365C31.3261 10.8094 31.5759 10.8334 31.8131 10.907C32.0503 10.9807 32.2699 11.1023 32.458 11.2645C32.6462 11.4266 32.7989 11.6258 32.9068 11.8495C33.0146 12.0732 33.0753 12.3168 33.0849 12.565C33.0946 12.8132 33.053 13.0607 32.9629 13.2921C32.8727 13.5236 32.7359 13.7339 32.5609 13.9102L24.6289 21.9021C23.1806 23.3505 25.0921 25.0797 26.4637 23.7093L28.5169 21.7101C28.6702 21.51 28.8639 21.3444 29.0855 21.2242C29.307 21.104 29.5515 21.0318 29.8028 21.0125C30.0541 20.9931 30.3067 21.027 30.5441 21.1119C30.7815 21.1968 30.9983 21.3308 31.1803 21.5051C31.3624 21.6795 31.5057 21.8903 31.6007 22.1237C31.6958 22.3572 31.7406 22.6081 31.7322 22.86C31.7237 23.112 31.6623 23.3593 31.5518 23.5859C31.4413 23.8124 31.2842 24.0132 31.0909 24.1749L24.9085 30.4005C23.3642 31.9449 25.0909 33.842 26.6665 32.2653L35.4037 23.7093C37.4964 21.6165 39.7788 24.3693 37.9932 26.1549L26.2105 38.1152C25.8386 38.4869 25.3342 38.6958 24.8083 38.6958C24.2825 38.6958 23.7781 38.4869 23.4062 38.1152L23.4086 38.1104ZM38.2536 20.9614C38.2536 20.5909 38.3635 20.2287 38.5693 19.9207C38.7751 19.6126 39.0677 19.3725 39.41 19.2308C39.7523 19.089 40.1289 19.0519 40.4923 19.1242C40.8556 19.1964 41.1894 19.3748 41.4514 19.6368C41.7133 19.8988 41.8917 20.2326 41.964 20.5959C42.0363 20.9593 41.9992 21.3359 41.8574 21.6782C41.7156 22.0205 41.4755 22.313 41.1675 22.5188C40.8595 22.7247 40.4973 22.8345 40.1268 22.8345C39.63 22.8345 39.1536 22.6372 38.8023 22.2859C38.451 21.9346 38.2536 21.4582 38.2536 20.9614V20.9614ZM32.5765 17.7538C34.4845 15.8458 36.5052 13.7938 38.532 11.7658C40.5588 9.73785 43.0236 12.199 41.1012 14.1214C39.1788 16.0438 35.0137 20.1454 35.0137 20.1454C34.8293 20.3447 34.6069 20.5053 34.3596 20.6176C34.1123 20.7299 33.8451 20.7917 33.5737 20.7994C33.217 20.8026 32.8685 20.6923 32.5787 20.4843C32.2889 20.2763 32.0729 19.9815 31.9618 19.6426C31.8507 19.3036 31.8504 18.9381 31.9609 18.5989C32.0714 18.2598 32.287 17.9646 32.5765 17.7562V17.7538Z"/></g></svg>

<svg xmlns="http://www.w3.org/2000/svg" fill="none" aria-hidden="true" viewBox="0 0 48 48"><path fill="#1B41E9" d="M23.409 38.11 8.745 23.447c-8.183-8.183 3.8-19.263 11.547-11.52l2.842 2.914a2.039 2.039 0 0 0 3.36 0l3.332-3.288a1.809 1.809 0 1 1 2.735 2.357l-7.932 7.992c-1.448 1.448.463 3.178 1.835 1.807l2.053-1.999a1.794 1.794 0 1 1 2.574 2.465L24.908 30.4c-1.544 1.544.183 3.441 1.758 1.864l8.738-8.556c2.092-2.093 4.375.66 2.59 2.446L26.21 38.115a1.984 1.984 0 0 1-2.804 0l.003-.005Zm14.845-17.149a1.873 1.873 0 1 1 3.746 0 1.873 1.873 0 0 1-3.746 0Zm-5.677-3.207c1.907-1.908 3.928-3.96 5.955-5.988 2.027-2.028 4.492.433 2.57 2.355-1.923 1.923-6.088 6.024-6.088 6.024a2.04 2.04 0 0 1-1.44.654 1.68 1.68 0 0 1-.997-3.043v-.002Z"/></svg>
